flaticon/science/microscope.svg

<svg xmlns="http://www.w3.org/2000/svg" width="32" height="32" viewBox="0 0 24 24">
    <path d="M 22.796875 21.601562 L 17.515625 21.601562 L 16.84375 19.347656 C 18.40625 17.6875 19.277344 15.542969 19.277344 13.28125 C 19.277344 11.167969 18.523438 9.171875 17.167969 7.574219 C 17.0625 6.886719 16.714844 6.289062 16.214844 5.863281 L 16.839844 4.882812 C 16.917969 4.765625 16.917969 4.683594 16.917969 4.5625 C 16.917969 4.484375 16.839844 4.363281 16.757812 4.324219 L 16.441406 4.109375 L 16.683594 3.730469 C 16.773438 3.75 16.867188 3.765625 16.960938 3.765625 C 17.039062 3.765625 17.117188 3.722656 17.199219 3.722656 C 17.519531 3.644531 17.800781 3.484375 17.957031 3.203125 C 18.160156 2.964844 18.238281 2.644531 18.160156 2.324219 C 18.078125 2.003906 17.917969 1.722656 17.640625 1.5625 L 15.640625 0.203125 C 15.078125 -0.15625 14.320312 -0.0351562 13.960938 0.523438 C 13.757812 0.804688 13.71875 1.125 13.757812 1.445312 C 13.804688 1.628906 13.878906 1.785156 13.980469 1.921875 L 13.746094 2.289062 L 13.441406 2.085938 C 13.238281 1.964844 13 2.003906 12.878906 2.203125 L 8.273438 9.039062 C 8.171875 9.113281 8.085938 9.214844 8.082031 9.316406 C 8.066406 9.347656 8.0625 9.382812 8.066406 9.421875 L 7.839844 11.082031 L 7.039062 12.28125 C 6.960938 12.363281 6.921875 12.441406 6.960938 12.5625 C 6.960938 12.640625 7.039062 12.761719 7.121094 12.800781 L 7.15625 12.828125 L 6.480469 13.84375 C 6.402344 13.921875 6.359375 14 6.402344 14.121094 C 6.402344 14.203125 6.480469 14.320312 6.5625 14.363281 L 7.878906 15.242188 C 7.960938 15.28125 8.039062 15.320312 8.121094 15.320312 C 8.160156 15.320312 8.160156 15.320312 8.242188 15.363281 C 8.320312 15.363281 8.441406 15.28125 8.480469 15.203125 L 9.160156 14.183594 C 9.226562 14.214844 9.292969 14.242188 9.359375 14.242188 C 9.359375 14.242188 9.402344 14.242188 9.480469 14.242188 C 9.558594 14.242188 9.679688 14.160156 9.71875 14.082031 L 10.601562 12.761719 C 10.601562 12.757812 10.605469 12.753906 10.609375 12.746094 L 11.875 12.035156 C 11.976562 12.011719 12.085938 11.945312 12.121094 11.882812 L 13.070312 10.472656 C 13.464844 10.683594 13.917969 10.800781 14.398438 10.800781 C 14.445312 10.800781 14.488281 10.800781 14.535156 10.800781 C 14.957031 11.527344 15.199219 12.382812 15.199219 13.242188 C 15.199219 14.011719 15.03125 14.753906 14.667969 15.445312 C 14.03125 15.035156 13.273438 14.800781 12.480469 14.800781 C 10.6875 14.800781 9.148438 15.980469 8.609375 17.601562 L 2.800781 17.601562 C 2.5625 17.601562 2.402344 17.761719 2.402344 18 L 2.402344 19.601562 C 2.402344 19.839844 2.5625 20 2.800781 20 L 8.402344 20 L 8.402344 21.601562 L 1.203125 21.601562 C 0.960938 21.601562 0.800781 21.761719 0.800781 22 L 0.800781 23.601562 C 0.800781 23.839844 0.960938 24 1.203125 24 L 22.796875 24 C 23.039062 24 23.199219 23.839844 23.199219 23.601562 L 23.199219 22 C 23.199219 21.761719 23.039062 21.601562 22.796875 21.601562 Z M 16.398438 8.003906 C 16.398438 9.121094 15.519531 10.003906 14.398438 10.003906 C 13.96875 10.003906 13.570312 9.871094 13.246094 9.644531 C 13.230469 9.628906 13.21875 9.617188 13.199219 9.601562 C 12.84375 9.328125 12.601562 8.984375 12.484375 8.585938 C 12.480469 8.574219 12.476562 8.5625 12.472656 8.550781 C 12.46875 8.53125 12.460938 8.507812 12.457031 8.488281 C 12.453125 8.472656 12.449219 8.453125 12.445312 8.433594 C 12.441406 8.417969 12.4375 8.402344 12.4375 8.386719 C 12.433594 8.367188 12.429688 8.347656 12.425781 8.328125 C 12.421875 8.3125 12.421875 8.296875 12.417969 8.28125 C 12.417969 8.261719 12.414062 8.242188 12.410156 8.222656 C 12.410156 8.203125 12.40625 8.183594 12.40625 8.160156 C 12.40625 8.144531 12.402344 8.128906 12.402344 8.113281 C 12.402344 8.078125 12.398438 8.039062 12.398438 8.003906 C 12.398438 6.882812 13.28125 6.003906 14.398438 6.003906 C 14.425781 6.003906 14.449219 6.003906 14.472656 6.003906 C 14.808594 6.019531 15.140625 6.136719 15.4375 6.324219 C 15.480469 6.347656 15.527344 6.363281 15.570312 6.375 C 16.074219 6.734375 16.398438 7.324219 16.398438 8.003906 Z M 14.640625 0.964844 C 14.71875 0.84375 14.839844 0.804688 14.960938 0.804688 C 15.039062 0.804688 15.121094 0.84375 15.199219 0.882812 L 17.199219 2.246094 C 17.277344 2.285156 17.320312 2.363281 17.359375 2.484375 C 17.359375 2.5625 17.320312 2.683594 17.277344 2.765625 C 17.199219 2.84375 17.117188 2.882812 17 2.925781 C 16.917969 2.964844 16.800781 2.925781 16.71875 2.882812 L 14.71875 1.523438 C 14.640625 1.484375 14.558594 1.40625 14.558594 1.285156 C 14.558594 1.164062 14.558594 1.042969 14.640625 0.964844 Z M 14.621094 2.4375 L 15.933594 3.328125 L 15.757812 3.644531 L 15.097656 3.203125 L 14.441406 2.761719 Z M 8.039062 14.363281 L 7.359375 13.921875 L 7.789062 13.257812 L 8.460938 13.714844 Z M 9.242188 13.242188 L 7.921875 12.363281 L 8.339844 11.714844 L 9.652344 12.605469 Z M 10.242188 12.039062 L 9.980469 11.863281 L 8.679688 10.960938 L 8.796875 10.097656 L 9.902344 10.84375 L 11 11.601562 Z M 11.699219 11.054688 L 9.050781 9.265625 L 13.28125 3.003906 L 15.917969 4.804688 L 15.496094 5.421875 C 15.160156 5.28125 14.789062 5.203125 14.398438 5.203125 C 14.394531 5.203125 14.386719 5.203125 14.378906 5.203125 C 14.371094 5.203125 14.367188 5.203125 14.359375 5.203125 C 12.800781 5.203125 11.558594 6.445312 11.558594 8.003906 C 11.558594 8.761719 11.878906 9.484375 12.398438 10.003906 Z M 17.082031 8.808594 C 17.921875 10.128906 18.398438 11.644531 18.398438 13.203125 C 18.398438 15.074219 17.722656 16.867188 16.53125 18.304688 L 16.359375 17.722656 C 16.160156 17 15.800781 16.402344 15.28125 15.921875 C 15.757812 15.082031 16 14.160156 16 13.164062 C 16 12.292969 15.765625 11.425781 15.375 10.632812 C 16.199219 10.332031 16.832031 9.65625 17.082031 8.808594 Z M 3.203125 19.199219 L 3.203125 18.402344 L 8.429688 18.402344 C 8.425781 18.429688 8.421875 18.457031 8.421875 18.484375 C 8.402344 18.589844 8.402344 18.707031 8.402344 18.800781 L 8.402344 19.199219 Z M 9.199219 19.601562 L 9.199219 18.882812 C 9.199219 18.734375 9.210938 18.585938 9.230469 18.445312 C 9.25 18.332031 9.28125 18.21875 9.320312 18.121094 C 9.335938 18.070312 9.339844 18.023438 9.332031 17.972656 C 9.730469 16.609375 10.996094 15.601562 12.480469 15.601562 C 13.203125 15.601562 13.890625 15.855469 14.441406 16.28125 C 14.460938 16.3125 14.488281 16.339844 14.519531 16.363281 C 15.039062 16.761719 15.398438 17.320312 15.597656 17.960938 L 16.679688 21.601562 L 9.199219 21.601562 Z M 22.398438 23.199219 L 1.601562 23.199219 L 1.601562 22.398438 L 22.398438 22.398438 Z M 22.398438 23.199219"/>
    <path d="M12.398438 16.402344C11.082031 16.402344 10 17.480469 10 18.800781 10 20.121094 11.082031 21.199219 12.398438 21.199219 13.71875 21.199219 14.800781 20.121094 14.800781 18.800781 14.800781 17.480469 13.71875 16.402344 12.398438 16.402344zM12.398438 20.402344C11.519531 20.402344 10.800781 19.679688 10.800781 18.800781 10.800781 17.921875 11.519531 17.203125 12.398438 17.203125 13.28125 17.203125 14 17.921875 14 18.800781 14 19.679688 13.28125 20.402344 12.398438 20.402344zM15.480469 6.921875C15.320312 6.761719 15.078125 6.761719 14.917969 6.921875L14.398438 7.441406 13.878906 6.921875C13.71875 6.761719 13.480469 6.761719 13.320312 6.921875 13.160156 7.082031 13.160156 7.324219 13.320312 7.484375L13.839844 8.003906 13.320312 8.523438C13.160156 8.683594 13.160156 8.921875 13.320312 9.082031 13.398438 9.164062 13.480469 9.203125 13.601562 9.203125 13.71875 9.203125 13.800781 9.164062 13.878906 9.082031L14.398438 8.5625 14.917969 9.082031C15 9.164062 15.078125 9.203125 15.199219 9.203125 15.320312 9.203125 15.398438 9.164062 15.480469 9.082031 15.640625 8.921875 15.640625 8.683594 15.480469 8.523438L14.960938 8.003906 15.480469 7.484375C15.640625 7.324219 15.640625 7.082031 15.480469 6.921875zM15.480469 6.921875"/>
    <path d="M 13.238281 17.960938 C 13.078125 17.800781 12.839844 17.800781 12.679688 17.960938 L 12.398438 18.242188 L 12.121094 17.960938 C 11.960938 17.800781 11.71875 17.800781 11.558594 17.960938 C 11.398438 18.121094 11.398438 18.359375 11.558594 18.519531 L 11.839844 18.800781 L 11.558594 19.082031 C 11.398438 19.242188 11.398438 19.480469 11.558594 19.640625 C 11.640625 19.722656 11.71875 19.761719 11.839844 19.761719 C 11.921875 19.761719 12.039062 19.722656 12.121094 19.640625 L 12.398438 19.359375 L 12.679688 19.640625 C 12.761719 19.722656 12.839844 19.761719 12.960938 19.761719 C 13.078125 19.761719 13.160156 19.722656 13.238281 19.640625 C 13.398438 19.480469 13.398438 19.242188 13.238281 19.082031 L 12.960938 18.800781 L 13.238281 18.519531 C 13.398438 18.359375 13.398438 18.121094 13.238281 17.960938 Z M 13.238281 17.960938"/>
</svg>

<svg xmlns="http://www.w3.org/2000/svg" width="32" height="32" viewBox="0 0 24 24">
    <path d="M22.797 21.602h-5.281l-.672-2.254c1.562-1.66 2.433-3.805 2.433-6.067 0-2.113-.754-4.11-2.109-5.707a2.797 2.797 0 0 0-.953-1.71l.625-.981c.078-.117.078-.2.078-.32 0-.079-.078-.2-.16-.239l-.317-.215.243-.379c.09.02.183.036.277.036.078 0 .156-.043.238-.043.32-.078.602-.239.758-.52a.982.982 0 0 0 .203-.879c-.082-.32-.242-.601-.52-.761l-2-1.36c-.562-.36-1.32-.238-1.68.32-.202.282-.241.602-.202.922.047.184.12.34.222.477l-.234.367-.305-.203c-.203-.121-.441-.082-.562.117L8.273 9.04c-.101.074-.187.176-.191.277a.189.189 0 0 0-.016.106l-.226 1.66-.8 1.2c-.08.081-.118.16-.08.28 0 .079.08.2.161.239l.035.027-.676 1.016c-.078.078-.12.156-.078.277 0 .082.078.2.16.242l1.317.88c.082.038.16.077.242.077.04 0 .04 0 .121.043.078 0 .2-.082.238-.16l.68-1.02a.485.485 0 0 0 .2.06h.12c.079 0 .2-.083.239-.161l.883-1.32c0-.004.003-.008.007-.016l1.266-.71c.102-.024.21-.09.246-.153l.95-1.41c.394.21.847.328 1.327.328h.137c.422.726.664 1.582.664 2.441 0 .77-.168 1.512-.531 2.203a4.043 4.043 0 0 0-2.188-.644c-1.793 0-3.332 1.18-3.87 2.8H2.8c-.237 0-.398.16-.398.399v1.602c0 .238.16.398.399.398h5.601v1.602H1.203c-.242 0-.402.16-.402.398v1.602c0 .238.16.398.402.398h21.594c.242 0 .402-.16.402-.398V22c0-.238-.16-.398-.402-.398zM16.398 8.004c0 1.117-.878 2-2 2-.43 0-.828-.133-1.152-.36a.51.51 0 0 0-.047-.042 1.976 1.976 0 0 1-.715-1.016l-.011-.035c-.004-.02-.012-.043-.016-.063l-.012-.054c-.004-.016-.008-.032-.008-.047l-.011-.059c-.004-.015-.004-.031-.008-.047 0-.02-.004-.039-.008-.058 0-.02-.004-.04-.004-.063 0-.015-.004-.031-.004-.047 0-.035-.004-.074-.004-.11 0-1.12.883-2 2-2h.075c.336.017.668.134.964.321.043.024.09.04.133.051.504.36.828.95.828 1.629zM14.641.964c.078-.12.199-.16.32-.16.078 0 .16.04.238.079l2 1.363c.078.04.121.117.16.238 0 .079-.039.2-.082.282a.692.692 0 0 1-.277.16c-.082.039-.2 0-.281-.043l-2-1.36c-.078-.039-.16-.117-.16-.238 0-.12 0-.242.082-.32zm-.02 1.474l1.313.89-.176.317-.66-.442-.657-.441zM8.04 14.363l-.68-.441.43-.664.672.457zm1.203-1.12l-1.32-.88.418-.648 1.312.89zm1-1.204l-.262-.176-1.3-.902.117-.863 1.105.746 1.098.758zm1.457-.984l-2.648-1.79 4.23-6.261 2.637 1.8-.422.618a2.837 2.837 0 0 0-1.098-.219h-.039a2.786 2.786 0 0 0-2.8 2.8c0 .759.32 1.481.84 2zm5.383-2.246c.84 1.32 1.316 2.836 1.316 4.394 0 1.871-.675 3.664-1.867 5.102l-.172-.582a3.752 3.752 0 0 0-1.078-1.801c.477-.84.719-1.762.719-2.758 0-.871-.234-1.738-.625-2.531a2.773 2.773 0 0 0 1.707-1.824zM3.203 19.199v-.797H8.43a.583.583 0 0 0-.008.082c-.02.106-.02.223-.02.317v.398zm5.996.403v-.72c0-.148.012-.296.031-.437.02-.113.051-.226.09-.324a.32.32 0 0 0 .012-.148c.398-1.364 1.664-2.371 3.148-2.371.723 0 1.41.253 1.961.68a.31.31 0 0 0 .079.081c.52.399.878.957 1.078 1.598l1.082 3.64H9.2zm13.2 3.597H1.601v-.8h20.796zm0 0"/>
    <path d="M12.398 16.402A2.406 2.406 0 0 0 10 18.801a2.406 2.406 0 0 0 2.398 2.398 2.407 2.407 0 0 0 2.403-2.398 2.407 2.407 0 0 0-2.403-2.399zm0 4a1.605 1.605 0 0 1-1.597-1.601c0-.88.719-1.598 1.597-1.598.883 0 1.602.719 1.602 1.598 0 .879-.719 1.601-1.602 1.601zm0 0M15.48 6.922a.39.39 0 0 0-.562 0l-.52.52-.52-.52a.385.385 0 0 0-.558 0 .39.39 0 0 0 0 .562l.52.52-.52.52a.385.385 0 0 0 0 .558c.078.082.16.121.282.121.117 0 .199-.039.277-.121l.52-.52.519.52c.082.082.16.121.281.121.121 0 .2-.039.281-.121a.385.385 0 0 0 0-.559l-.52-.52.52-.519a.39.39 0 0 0 0-.562zm0 0"/>
    <path d="M13.238 17.96a.385.385 0 0 0-.558 0l-.282.282-.277-.281a.39.39 0 0 0-.562 0 .385.385 0 0 0 0 .559l.28.28-.28.282a.385.385 0 0 0 0 .559c.082.082.16.12.28.12.083 0 .2-.038.282-.12l.277-.282.282.282c.082.082.16.12.28.12.118 0 .2-.038.278-.12a.385.385 0 0 0 0-.559l-.277-.281.277-.281a.385.385 0 0 0 0-.56zm0 0"/>
</svg>
